Newaita-dark/actions/24/edit-image-face-recognize.svg

<svg height="24" viewBox="0 0 24 24" width="24" xmlns="http://www.w3.org/2000/svg"><g fill="#e0e0e0"><path d="m11.90625 2.171875c-2.746094 0-4.960938 2.214844-4.960938 4.960937 0 2.75 2.214844 4.960938 4.960938 4.960938 2.75 0 4.960938-2.210938 4.960938-4.960938 0-2.746093-2.210938-4.960937-4.960938-4.960937zm0 1.984375c1.648438 0 2.976562 1.328125 2.976562 2.976562 0 1.648438-1.328124 2.976563-2.976562 2.976563s-2.976562-1.328125-2.976562-2.976563c0-1.648437 1.328124-2.976562 2.976562-2.976562zm0 0"/><path d="m15.378906 12.597656c-.125 0-.25.023438-.367187.070313-2.308594.921875-3.898438.921875-6.210938 0-.210937-.085938-.449219-.09375-.664062-.027344-.664063.210937-1.859375.464844-2.960938 1.054687-1.097656.589844-2.195312 1.726563-2.195312 3.359376v1.488281h-.003907v1.488281c0 1.101562.886719 1.988281 1.984376 1.988281h11.90625v-1.988281h-10.914063c-.550781 0-.992187-.441406-.992187-.992188v-.496093h-.003907v-1.488281c0-.84375.394531-1.210938 1.152344-1.617188.667969-.359375 1.535156-.585938 2.300781-.816406 2.398438.882812 4.597656.882812 6.996094 0 .472656.136718.980469.277344 1.460938.449218v-2.089843c-.46875-.140625-.886719-.246094-1.195313-.339844-.097656-.03125-.195313-.046875-.292969-.042969zm0 0"/><path d="m18.851562 18.542969v-3.96875c0-.273438.222657-.496094.496094-.496094h.992188c.277344 0 .5.222656.5.496094v3.96875c0 .277343-.222656.496093-.5.496093h-.992188c-.273437 0-.496094-.21875-.496094-.496093zm0 0"/><path d="m18.851562 21.027344c0-.550782.445313-.996094.992188-.996094.550781 0 .996094.445312.996094.996094 0 .546875-.445313.992187-.996094.992187-.546875 0-.992188-.445312-.992188-.992187zm0 0"/></g></svg>

<?xml version="1.0" encoding="UTF-8"?>
<svg xmlns="http://www.w3.org/2000/svg" xmlns:xlink="http://www.w3.org/1999/xlink" width="24px" height="24px" viewBox="0 0 24 24" version="1.1">
<g id="surface1">
<path style=" stroke:none;fill-rule:nonzero;fill:rgb(87.843138%,87.843138%,87.843138%);fill-opacity:1;" d="M 11.90625 2.171875 C 9.160156 2.171875 6.945312 4.386719 6.945312 7.132812 C 6.945312 9.882812 9.160156 12.09375 11.90625 12.09375 C 14.65625 12.09375 16.867188 9.882812 16.867188 7.132812 C 16.867188 4.386719 14.65625 2.171875 11.90625 2.171875 Z M 11.90625 4.15625 C 13.554688 4.15625 14.882812 5.484375 14.882812 7.132812 C 14.882812 8.78125 13.554688 10.109375 11.90625 10.109375 C 10.257812 10.109375 8.929688 8.78125 8.929688 7.132812 C 8.929688 5.484375 10.257812 4.15625 11.90625 4.15625 Z M 11.90625 4.15625 "/>
<path style=" stroke:none;fill-rule:nonzero;fill:rgb(87.843138%,87.843138%,87.843138%);fill-opacity:1;" d="M 15.378906 12.597656 C 15.253906 12.597656 15.128906 12.621094 15.011719 12.667969 C 12.703125 13.589844 11.113281 13.589844 8.800781 12.667969 C 8.589844 12.582031 8.351562 12.574219 8.136719 12.640625 C 7.472656 12.851562 6.277344 13.105469 5.175781 13.695312 C 4.078125 14.285156 2.980469 15.421875 2.980469 17.054688 L 2.980469 18.542969 L 2.976562 18.542969 L 2.976562 20.03125 C 2.976562 21.132812 3.863281 22.019531 4.960938 22.019531 L 16.867188 22.019531 L 16.867188 20.03125 L 5.953125 20.03125 C 5.402344 20.03125 4.960938 19.589844 4.960938 19.039062 L 4.960938 18.542969 L 4.957031 18.542969 L 4.957031 17.054688 C 4.957031 16.210938 5.351562 15.84375 6.109375 15.4375 C 6.777344 15.078125 7.644531 14.851562 8.410156 14.621094 C 10.808594 15.503906 13.007812 15.503906 15.40625 14.621094 C 15.878906 14.757812 16.386719 14.898438 16.867188 15.070312 L 16.867188 12.980469 C 16.398438 12.839844 15.980469 12.734375 15.671875 12.640625 C 15.574219 12.609375 15.476562 12.59375 15.378906 12.597656 Z M 15.378906 12.597656 "/>
<path style=" stroke:none;fill-rule:nonzero;fill:rgb(87.843138%,87.843138%,87.843138%);fill-opacity:1;" d="M 18.851562 18.542969 L 18.851562 14.574219 C 18.851562 14.300781 19.074219 14.078125 19.347656 14.078125 L 20.339844 14.078125 C 20.617188 14.078125 20.839844 14.300781 20.839844 14.574219 L 20.839844 18.542969 C 20.839844 18.820312 20.617188 19.039062 20.339844 19.039062 L 19.347656 19.039062 C 19.074219 19.039062 18.851562 18.820312 18.851562 18.542969 Z M 18.851562 18.542969 "/>
<path style=" stroke:none;fill-rule:nonzero;fill:rgb(87.843138%,87.843138%,87.843138%);fill-opacity:1;" d="M 18.851562 21.027344 C 18.851562 20.476562 19.296875 20.03125 19.84375 20.03125 C 20.394531 20.03125 20.839844 20.476562 20.839844 21.027344 C 20.839844 21.574219 20.394531 22.019531 19.84375 22.019531 C 19.296875 22.019531 18.851562 21.574219 18.851562 21.027344 Z M 18.851562 21.027344 "/>
</g>
</svg>
